to angle [ ]
[
  rt 30
  fd 50
  lt 105
  fd 25
  bk 25
  rt 105
  bk 50
]

tell [ 1 2 3 4 5 6 7 8 9 10 11 12 ]
st
pd
for [ :x 1 12.1 1 ]
[ 
  ask [ :x ]
  [
    rt product id 30
    setpc * id * 255 * 255 / 256 12
  ]
]
angle
pu
fd 100